symbols/web/ad_group/materialsymbolsoutlined/ad_group_wght200_24px.svg

<svg xmlns="http://www.w3.org/2000/svg" height="24" viewBox="0 -960 960 960" width="24"><path d="M324.615-320h430.77q9.231 0 16.923-7.692Q780-335.385 780-344.615V-720H300v375.385q0 9.23 7.692 16.923Q315.385-320 324.615-320Zm0 40Q297-280 278.5-298.5 260-317 260-344.615v-430.77Q260-803 278.5-821.5 297-840 324.615-840h430.77Q783-840 801.5-821.5 820-803 820-775.385v430.77Q820-317 801.5-298.5 783-280 755.385-280h-430.77Zm-120 120Q177-160 158.5-178.5 140-197 140-224.615v-470.77h40v470.77q0 9.231 7.692 16.923Q195.384-200 204.615-200h470.77v40h-470.77ZM300-800v480-480Z"/></svg>

<svg xmlns="http://www.w3.org/2000/svg" height="24" viewBox="0 -960 960 960" width="24"><path d="M324.62-320h430.76q9.24 0 16.93-7.69 7.69-7.69 7.69-16.93V-720H300v375.38q0 9.24 7.69 16.93 7.69 7.69 16.93 7.69Zm0 40q-27.62 0-46.12-18.5Q260-317 260-344.62v-430.76q0-27.62 18.5-46.12Q297-840 324.62-840h430.76q27.62 0 46.12 18.5Q820-803 820-775.38v430.76q0 27.62-18.5 46.12Q783-280 755.38-280H324.62Zm-120 120q-27.62 0-46.12-18.5Q140-197 140-224.61v-470.77h40v470.77q0 9.23 7.69 16.92 7.69 7.69 16.93 7.69h470.76v40H204.62ZM300-800v480-480Z"/></svg>
